svg/24/usb.svg

<svg width="24" height="24" viewBox="0 0 24 24" fill="currentColor" xmlns="http://www.w3.org/2000/svg"><path d="M11.6 1.5335C11.8 1.26683 12.2 1.26683 12.4 1.5335L14.4 4.20016C14.6472 4.52978 14.412 5.00016 14 5.00016H12.75V12.7866L17.1118 10.6057C17.1965 10.5634 17.25 10.4768 17.25 10.3821V9.00016H17C16.4477 9.00016 16 8.55245 16 8.00016V6.00016C16 5.44788 16.4477 5.00016 17 5.00016H19C19.5523 5.00016 20 5.44788 20 6.00016V8.00016C20 8.55245 19.5523 9.00016 19 9.00016H18.75V10.3821C18.75 11.045 18.3755 11.6509 17.7826 11.9474L12.75 14.4637V15.9851C12.7502 15.9955 12.7502 16.0059 12.75 16.0164V18.1455C13.483 18.4422 14 19.1608 14 20.0002C14 21.1047 13.1046 22.0002 12 22.0002C10.8954 22.0002 10 21.1047 10 20.0002C10 19.1608 10.517 18.4422 11.25 18.1455V16.4637L6.21738 13.9474C5.6245 13.6509 5.25 13.045 5.25 12.3821V10.8548C4.51704 10.5581 4 9.83951 4 9.00016C4 7.89559 4.89543 7.00016 6 7.00016C7.10457 7.00016 8 7.89559 8 9.00016C8 9.83951 7.48296 10.5581 6.75 10.8548V12.3821C6.75 12.4768 6.8035 12.5634 6.8882 12.6057L11.25 14.7866V14.0164C11.2498 14.006 11.2498 13.9955 11.25 13.9851V5.00016H10C9.58798 5.00016 9.35279 4.52978 9.6 4.20016L11.6 1.5335Z"/></svg>

<svg xmlns="http://www.w3.org/2000/svg" width="24" height="24" fill="currentColor" viewBox="0 0 24 24">
  <path d="M11.6 1.534a.5.5 0 0 1 .8 0l2 2.666a.5.5 0 0 1-.4.8h-1.25v7.787l4.362-2.181a.25.25 0 0 0 .138-.224V9H17a1 1 0 0 1-1-1V6a1 1 0 0 1 1-1h2a1 1 0 0 1 1 1v2a1 1 0 0 1-1 1h-.25v1.382a1.75 1.75 0 0 1-.967 1.565l-5.033 2.517v3.682a2 2 0 1 1-1.5 0v-1.682l-5.033-2.517a1.75 1.75 0 0 1-.967-1.565v-1.527a2 2 0 1 1 1.5 0v1.527a.25.25 0 0 0 .138.224l4.362 2.18V5H10a.5.5 0 0 1-.4-.8l2-2.667Z"/>
</svg>
